X:1
T: Paradise Jig
C:BruceShawyer
R:Jig
Q:180
K:F
M:6/8
L:1/16
f2c2A2 c2A2F2|B2G2E2 F2A2C2|D2B2A2 G2F2E2|F6-F4c2|B2c2d2 G2A2B2|A2B2c2 F2G2A2|G2A2B2 E2F2G2|F6-F4 F2|
A2F2A2 c2A2c2|f2c2f2 a2f2c2|B2G2B2 d2B2d2|b2g2e2 c2B2G2|A2F2A2 c2A2c2|f2c2f2 a2f2c2|B2d2c2 B2A2G2|F6F6|
f2c2A2 c2A2F2|B2G2E2 F2A2C2|D2B2A2 G2F2E2|F6-F4c2|B2c2d2 G2A2B2|A2B2c2 F2G2A2|G2A2B2 E2F2G2|F6-F4 F2|
A2F2A2 c2A2c2|f2c2f2 a2f2c2|B2G2B2 d2B2d2|b2g2e2 c2B2G2|A2F2A2 c2A2c2|f2c2f2 a2f2c2|B2d2c2 B2A2G2|F6F6||
